X:1134
T:Presbyterian Hornpipe
C:anon
R:Hornpipe
F:http://abc.musicaviva.com/tunes/anon/presbyterian-hornpipe/presbyterian-hornpipe-1.abc
%Posted August 22th 2000 at abcusers by Bryan Creer during a discussion
%about modes.
M:3/2
L:1/8
K:Gm
G2B2B2G2cBAG|^F2A2A2F2A3F|G2B2ABcA Bc d2|D2G2G2B2A2G2:|
g2b2b2g2b2ag|f2a2a2f2a2gf|e2f2g2f2g2a2|f6e2d2c2|
B2d2f2B2d2f2|A2c2f2A2c2f2|G2B2d2G2B2d2|^F6E2D2C2|
B,2D2D2B,2D2CB,|A,2C2C2A,2C2B,A,|G,2B,2A,2C2B,2D2|C2E2D2^F2G4|]
W:
W:
W:  From Musica Viva - http://www.musicaviva.com
W:  the Internet center for free sheet music downloads.
